X:1
T:Paddy O'Rafferty  "arr. Kent Hiestand"
M:6/8
L:1/8
Q:80
C:Trad. Irish
S:Jig
K:HP
|: {g}def{g}ABA|
{g}Agf{g}edB|
{g}def{g}ABA|  !
d{g}d{c}d{g}dB{G}A|
{g}def{g}ABA|
{g}Agf{g}efg|  !
agf{g}edB|
d{g}d{c}d{g}dB{G}A:| |:
{g}Af{e}f{g}Ae{A}e|  !
{g}Af{e}f{g}edB|
{g}Af{e}f{g}Ae{A}e|
d{g}d{c}d{g}dB{G}A|  !
{g}Af{e}f{g}Ae{A}e|
{g}Af{e}f{g}efg|
a{g}a{g}aedB|  !
d{g}d{c}d{g}dB{G}A:| |:
d{g}d{c}d{g}efg|
{g}ded{g}dBG|  !
d{g}d{c}d{g}efg|
d{g}d{c}d{g}dB{G}A|
d{g}d{c}d{g}efg|  !
d{g}d{c}d{g}def|
{a}gfe{g}dcB|
d{g}d{c}d{g}dB{G}A:| |:  !
{g}fA{d}A{g}BA{d}A|
{g}fdf{g}edB|
{g}fA{d}A{g}B{d}B{e}B|  !
d{g}d{c}d{g}dB{G}A|
{g}fA{d}A{g}BA{d}A|
{g}fdf{g}efg|  !
a{g}a{g}aedB|
d{g}d{c}d{g}dB{G}A:| |:
{gfg}f2d{gef}e2d|  !
{gfg}f2d{g}edB|
{g}f{e}f{g}f{g}edB|
d{g}d{c}d{g}dB{G}A|  !
{g}fd{c}ded{c}d|
{g}fd{c}d{g}efg|
agf{g}edB|  !
d{g}d{c}d{g}dB{G}A:|

